!! 00000] TT[WS
!!!OTL: Sibao langong
!!!ARE: Asia, China,ÿShanxi Lishan
!! Ethnic Group: Han
!! WI, 66 (1)
!!!SCT: J0077
!!!YEM: Copyright 1995, estate of Helmut Schaffrath.
**kern
*ICvox
*Ivox
*M2/4
*k[f#]
*G:
{8cc
4cc
8a
=1
8a
8g
8e
8d
=2
4.dd
8ee
=3
4.cc
8dd}
=4
{8ee
4dd
8dd
=5
4dd
8cc
8a
=6
8g
8a
8e
8d
=7
2g}
=8
{8g
4g
8a
=9
4dd
8dd
8ee
=10
8cc
4cc
8dd
=11
8a
8g
8e
8d}
=12
{8cc
4cc
8a
=13
8g
8a
8g
8e
=14
4.d
8e
=15
4d
4r}
==
!!!AGN: Xiaodiao. Qingge
!!!ONB: ESAC (Essen Associative Code) Database: CHINA
!!!AMT: simple duple
!!!AIN: vox
!!!EED: Helmut Schaffrath
!!!EEV: 1.0
*-
